X: 1
T: Newmarket, The
M: 2/4
L: 1/8
R: polka
K: Amaj
|: E2 Ec | BA FA | E2 Ec | BA A2 |
E2 Ec | BA FA | E2 ec |1 BA A2 :|2 BA A>B ||
| ce B>c | BA FA | ce B>c | BA A>B |
ce B>c | BA FA | E2 E>c | BA A>B |
| ce B>c | BA FA | ce Bc/e/ | fe cB |
ce B>c | BA FA | Ez e>c | BA A2 ||
